icons/lines/scan-barcode.svg

<svg xmlns="http://www.w3.org/2000/svg" width="24" height="24" viewBox="0 0 24 24" fill="none" stroke="currentColor" stroke-width="2" stroke-linecap="round" stroke-linejoin="round">
  <path d="M10.5 17A2 2 0 0 1 9 18.5H7A2 2 0 0 1 5.5 17v-2A2 2 0 0 1 7 13.5h2a2 2 0 0 1 1.5 1.5z" />
  <path d="M10.5 9A2 2 0 0 1 9 10.5H7A2 2 0 0 1 5.5 9V7A2 2 0 0 1 7 5.5h2A2 2 0 0 1 10.5 7z" />
  <path d="M15 2h2.5A4.494 4.494 0 0 1 22 6.5V9" />
  <path d="M18.5 17a2 2 0 0 1-1.5 1.5h-2a2 2 0 0 1-1.5-1.5v-2a2 2 0 0 1 1.5-1.5h2a2 2 0 0 1 1.5 1.5z" />
  <path d="M18.5 9a2 2 0 0 1-1.5 1.5h-2A2 2 0 0 1 13.5 9V7A2 2 0 0 1 15 5.5h2A2 2 0 0 1 18.5 7z" />
  <path d="M2 9V6.5A4.494 4.494 0 0 1 6.5 2H9" />
  <path d="M22 16v1.5a4.494 4.494 0 0 1-4.5 4.5H16" />
  <path d="M9 22H6.5A4.494 4.494 0 0 1 2 17.5V15" />
</svg>

<svg xmlns="http://www.w3.org/2000/svg" width="24" height="24" viewBox="0 0 24 24" fill="none" stroke="currentColor" stroke-width="2" stroke-linecap="round" stroke-linejoin="round" >
  <path d="M2 9V6.5C2 4.01 4.01 2 6.5 2H9"/>
  <path d="M15 2H17.5C19.99 2 22 4.01 22 6.5V9"/>
  <path d="M22 16V17.5C22 19.99 19.99 22 17.5 22H16"/>
  <path d="M9 22H6.5C4.01 22 2 19.99 2 17.5V15"/>
  <path d="M10.5 7V9C10.5 10 10 10.5 9 10.5H7C6 10.5 5.5 10 5.5 9V7C5.5 6 6 5.5 7 5.5H9C10 5.5 10.5 6 10.5 7Z"/>
  <path d="M18.5 7V9C18.5 10 18 10.5 17 10.5H15C14 10.5 13.5 10 13.5 9V7C13.5 6 14 5.5 15 5.5H17C18 5.5 18.5 6 18.5 7Z"/>
  <path d="M10.5 15V17C10.5 18 10 18.5 9 18.5H7C6 18.5 5.5 18 5.5 17V15C5.5 14 6 13.5 7 13.5H9C10 13.5 10.5 14 10.5 15Z"/>
  <path d="M18.5 15V17C18.5 18 18 18.5 17 18.5H15C14 18.5 13.5 18 13.5 17V15C13.5 14 14 13.5 15 13.5H17C18 13.5 18.5 14 18.5 15Z"/>
  </svg>
